packages/core/src/svgs/tokens/mono/FER.svg

<svg width="24" height="24" viewBox="0 0 24 24" fill="none" xmlns="http://www.w3.org/2000/svg">
<path d="M6.41113 9.62343C6.41113 7.2529 8.61701 5.82349 10.7229 5.82349H16.0818C16.8817 5.82349 17.5876 6.47055 17.5876 7.32349C17.5876 8.18819 16.8641 8.76466 16.0818 8.76466H10.97C10.67 8.76466 10.2464 8.84702 9.90531 9.04112C9.5759 9.23524 9.35231 9.5176 9.35231 9.94117C9.35162 10.2394 9.46417 10.5268 9.66731 10.7452C9.87045 10.9636 10.1489 11.0967 10.4464 11.1176H14.9052C15.617 11.1176 16.4112 11.6411 16.4112 12.5706C16.4112 13.3647 15.764 14.0588 14.9052 14.0588H10.3876C10.2641 14.0588 10.2111 14.0823 10.1935 14.0941C9.89955 14.4682 9.63039 14.8612 9.38759 15.2705L9.35231 15.3529V17.8705C9.35231 18.647 8.7876 19.3529 7.94055 19.3529C7.54295 19.353 7.1609 19.1985 6.8754 18.9218C6.58988 18.6449 6.42336 18.268 6.41113 17.8705V15.3412C6.41113 14.7235 6.6229 14.194 6.82879 13.7881C7.01702 13.4294 7.25231 13.0881 7.42289 12.8411C7.44054 12.8117 7.45819 12.7823 7.48172 12.7646C7.54055 12.6705 7.5582 12.5881 7.54642 12.5058C7.53087 12.398 7.4906 12.2954 7.42878 12.2059L7.21701 11.9058C6.81702 11.3176 6.41113 10.7411 6.41113 9.62343ZM10.7229 6.41172C8.81702 6.41172 6.99937 7.68819 6.99937 9.62343C6.99937 10.547 7.29936 10.9822 7.69349 11.553L7.91701 11.8824C8.0229 12.0471 8.11113 12.2352 8.13467 12.447C8.15819 12.6647 8.10526 12.8882 7.95819 13.0941L7.91114 13.1764C7.73467 13.4235 7.5229 13.7353 7.35232 14.0588C7.16407 14.4235 6.99937 14.8587 6.99937 15.3412V17.8705C6.99937 18.3528 7.44054 18.7646 7.94055 18.7646C8.41113 18.7646 8.76408 18.3764 8.76408 17.8705V15.3412C8.76408 15.2705 8.78171 15.2118 8.79348 15.1647L8.86407 15.0118C8.91113 14.9058 8.9876 14.7764 9.0876 14.6176C9.28176 14.3118 9.51702 14.0058 9.7406 13.7117C9.84643 13.5764 10.0641 13.4705 10.3876 13.4705H14.9052C15.4346 13.4705 15.8229 13.047 15.8229 12.5706C15.8229 12.0412 15.3759 11.7059 14.9052 11.7059H10.4464C9.99233 11.6861 9.56355 11.4913 9.24985 11.1623C8.93622 10.8333 8.76213 10.3956 8.76408 9.94117C8.76386 9.65184 8.84264 9.368 8.99192 9.12029C9.1412 8.87252 9.35533 8.67023 9.61117 8.53524C10.0268 8.3035 10.4941 8.1801 10.97 8.17643H16.0875C16.5935 8.17643 16.9993 7.81761 16.9993 7.32349C16.9993 6.81172 16.5759 6.41172 16.0818 6.41172H10.7229Z" fill="white"/>
<path d="M10.7232 6.11768H16.0821C16.7291 6.11768 17.2938 6.64119 17.2938 7.32355C17.2938 8.00001 16.7291 8.47061 16.0821 8.47061H10.9703C10.282 8.47061 9.0585 8.82943 9.0585 9.94124C9.0585 10.8235 9.79966 11.4118 10.4467 11.4118H14.9055C15.4938 11.4118 16.1174 11.8413 16.1174 12.5706C16.1174 13.2058 15.5996 13.7647 14.9055 13.7647H10.3879C10.1232 13.7647 10.0114 13.853 9.97617 13.8942C9.74668 14.1883 9.52323 14.4823 9.34082 14.7764C9.14674 15.0824 9.0585 15.2589 9.0585 15.3413V17.8706C9.0585 18.5118 8.59968 19.0588 7.94086 19.0588C7.2938 19.0588 6.70557 18.5294 6.70557 17.8706V15.3413C6.70557 14.7942 6.8938 14.3059 7.09379 13.9235C7.2938 13.5412 7.54086 13.1883 7.72322 12.9294C7.9291 12.6353 7.85262 12.3236 7.67026 12.0471C7.1938 11.3117 6.70557 10.8235 6.70557 9.61773C6.70557 7.47061 8.71732 6.11768 10.7232 6.11768Z" fill="white"/>
<path fill-rule="evenodd" clip-rule="evenodd" d="M12 21.4117C14.4961 21.4117 16.89 20.4202 18.6551 18.6551C20.4202 16.89 21.4117 14.4961 21.4117 12C21.4117 9.50377 20.4202 7.10991 18.6551 5.34487C16.89 3.57982 14.4961 2.58823 12 2.58823C9.50377 2.58823 7.10991 3.57982 5.34487 5.34487C3.57982 7.10991 2.58823 9.50377 2.58823 12C2.58823 14.4961 3.57982 16.89 5.34487 18.6551C7.10991 20.4202 9.50377 21.4117 12 21.4117ZM12 22C14.6522 22 17.1957 20.9464 19.071 19.071C20.9464 17.1957 22 14.6522 22 12C22 9.34785 20.9464 6.80429 19.071 4.92892C17.1957 3.05357 14.6522 2 12 2C9.34785 2 6.80429 3.05357 4.92892 4.92892C3.05357 6.80429 2 9.34785 2 12C2 14.6522 3.05357 17.1957 4.92892 19.071C6.80429 20.9464 9.34785 22 12 22Z" fill="white"/>
</svg>

<svg xmlns="http://www.w3.org/2000/svg" width="24" height="24" fill="none" viewBox="0 0 24 24">
    <path fill="#fff" d="M6.411 9.623c0-2.37 2.206-3.8 4.312-3.8h5.359c.8 0 1.506.648 1.506 1.5 0 .865-.724 1.442-1.506 1.442H10.97c-.3 0-.724.082-1.065.276-.33.194-.553.477-.553.9a1.177 1.177 0 0 0 1.094 1.177h4.46c.711 0 1.505.523 1.505 1.453 0 .794-.647 1.488-1.506 1.488h-4.517c-.124 0-.177.023-.194.035q-.442.562-.806 1.177l-.036.082v2.518c0 .776-.564 1.482-1.411 1.482a1.53 1.53 0 0 1-1.53-1.483v-2.529c0-.617.212-1.147.418-1.553.188-.359.423-.7.594-.947.018-.03.035-.059.059-.076a.37.37 0 0 0 .064-.26.7.7 0 0 0-.117-.3l-.212-.3c-.4-.587-.806-1.164-.806-2.282m4.312-3.211c-1.906 0-3.724 1.276-3.724 3.211 0 .924.3 1.36.694 1.93l.224.33c.106.164.194.352.218.564a.93.93 0 0 1-.177.647l-.047.082a8 8 0 0 0-.559.883c-.188.365-.353.8-.353 1.282v2.53c0 .482.442.894.942.894.47 0 .823-.389.823-.895v-2.529c0-.07.018-.13.03-.176l.07-.153q.072-.158.224-.394c.194-.306.429-.612.653-.906.105-.136.323-.242.647-.242h4.517c.53 0 .918-.423.918-.9 0-.529-.447-.864-.918-.864h-4.459A1.76 1.76 0 0 1 8.764 9.94a1.59 1.59 0 0 1 .847-1.406 2.84 2.84 0 0 1 1.359-.359h5.117c.506 0 .912-.358.912-.853a.917.917 0 0 0-.917-.911z"/>
    <path fill="#fff" d="M10.723 6.118h5.36c.646 0 1.21.523 1.21 1.206 0 .676-.564 1.147-1.21 1.147H10.97c-.688 0-1.912.358-1.912 1.47 0 .882.742 1.47 1.389 1.47h4.459c.588 0 1.211.43 1.211 1.16 0 .635-.517 1.194-1.212 1.194h-4.517c-.265 0-.377.088-.412.13a10 10 0 0 0-.635.881c-.194.306-.282.483-.282.565v2.53c0 .64-.46 1.188-1.118 1.188-.647 0-1.235-.53-1.235-1.188v-2.53c0-.547.188-1.035.388-1.417s.447-.736.63-.995c.205-.294.129-.605-.054-.882-.476-.735-.964-1.224-.964-2.43 0-2.146 2.011-3.5 4.017-3.5"/>
    <path fill="#fff" fill-rule="evenodd" d="M12 21.412a9.412 9.412 0 1 0 0-18.824 9.412 9.412 0 0 0 0 18.824M12 22a10 10 0 1 0 0-20 10 10 0 0 0 0 20" clip-rule="evenodd"/>
</svg>
